!!!!SEGMENT: pl-kk--kk-i-2--013_sebastian-z-felsztyna--alleluia-ave-maria.krn
!!!cenid: 16xx:1626
!!!COM: Sebastian z Felsztyna
!!!COM-rismid: pe30096436
!!!CDT: ~1480->1543
!!!CNT: Polish
!!!OTL: Alleluia. Ave Maria
!!!PDT:
!!!AGN: Sacred
!!!SMS-siglum: PL-Kk
!!!SMS-shelfmark: Kk.I.2
!!!SMS-shelfwork: 013 W
!!!NIFC-rismid: 300258029
!!!URL-scan: http://repozytorium.nifc.pl/skany/pl-kk-nut--i-2
!!!ONB-nifc: skany: C: 0044; A: 0137; T: 0240; B: 0338;
!!!key:
**kern	**text	**kern	**text	**kern	**text	**kern	**text
*part4	*part4	*part3	*part3	*part2	*part2	*part1	*part1
*staff4	*staff4	*staff3	*staff3	*staff2	*staff2	*staff1	*staff1
*I"BASVS	*	*I"TENOR	*	*I"ALTVS	*	*I"DISCANTVS	*
*I'B	*	*I'T	*	*I'A	*	*I'S	*
*Ibass	*	*Itenor	*	*Ialto	*	*Isoprn	*
*ICvox	*	*ICvox	*	*ICvox	*	*ICvox	*
*clefF4	*	*clefC4	*	*clefC3	*	*clefC3	*
*k[]	*	*k[]	*	*k[]	*	*k[]	*
*C:	*	*C:	*	*C:	*	*C:	*
*M2/1	*	*M2/1	*	*M2/1	*	*M2/1	*
*met(C|)	*	*met(C|)	*	*met(C|)	*	*met(C|)	*
=1-	=1-	=1-	=1-	=1-	=1-	=1-	=1-
*	*	*lig	*	*	*	*	*
!LO:TX:a:t=Ad Rorate Alleluia Felstin Pro Paschali T(em)pore. Cum Proſa.	!	!LO:TX:a:t=Sebaſtiani Felstin Alleluia	!	!LO:TX:a:t=Felstin Alla ad Rorate.	!	!LO:TX:a:t=Sebastiani Felstin Alla ad Rorate. cum proſa	!
1G	AL-	1G	Al-	1.d	Al-	1g	Al-
*2\right	*	*	*	*	*	*	*
!	!	!	!	!	!	!LO:TX:t=P:problem=kreska pseudotaktowa	!
2E\	-le-	1A	.	.	.	1f	.
!LO:TX:t=P:problem=kreska pseudotaktowa	!	!	!	!	!	!	!
2F\	.	.	.	4c/	.	.	.
!	!	!	!	!LO:TX:t=P:problem=kreska pseudotaktowa	!	!	!
.	.	.	.	4B/	.	.	.
*	*	*Xlig	*	*	*	*	*
=2-	=2-	=2-	=2-	=2-	=2-	=2-	=2-
*lig	*	*lig	*	*	*	*lig	*
1C	.	1c	-le-	2c/	-le-	1e	-le-
.	.	.	.	2G/	.	.	.
1D	.	1A	.	2.d\	.	1f	.
!	!	!	!	!LO:TX:t=P:problem=kreska pseudotaktowa	!	!	!
.	.	.	.	4c/	.	.	.
*Xlig	*	*Xlig	*	*	*	*Xlig	*
=3-	=3-	=3-	=3-	=3-	=3-	=3-	=3-
2GG/	.	1Bn	.	2B/	.	2d\	.
1G	.	.	.	2d\	.	1g	.
*	*	*lig	*	*	*	*	*
.	.	1c	.	2e\	.	.	.
!LO:TX:t=P:problem=kreska pseudotaktowa	!	!	!	!LO:TX:t=P:problem=kreska pseudotaktowa	!	!LO:TX:t=P:problem=kreska pseudotaktowa	!
2F\	.	.	.	2f\	.	2a\	.
=4-	=4-	=4-	=4-	=4-	=4-	=4-	=4-
*	*	*	*	*	*	*lig	*
2G\	.	1B	.	2d\	.	1g	.
2E\	.	.	.	2e\	.	.	.
*	*	*Xlig	*	*	*	*	*
1F	.	1A	.	2c/	.	1f	.
.	.	.	.	2d\	.	.	.
*	*	*	*	*	*	*Xlig	*
=5-	=5-	=5-	=5-	=5-	=5-	=5-	=5-
*lig	*	*lig	*	*lig	*	*	*
1E	lu-	1G	-lu-	1B	-lu-	2g\	.
!	!	!	!	!	!	!LO:TX:t=P:problem=kreska pseudotaktowa	!
.	.	.	.	.	.	2e\	.
1AA	.	1A	.	1d	.	1f	-lu-
*Xlig	*	*Xlig	*	*Xlig	*	*	*
=6-	=6-	=6-	=6-	=6-	=6-	=6-	=6-
!LO:TX:t=P:problem=kreska pseudotaktowa	!	!LO:TX:t=P:problem=kreska pseudotaktowa	!	!LO:TX:t=P:problem=kreska pseudotaktowa	!	!LO:TX:t=P:problem=kreska pseudotaktowa	!
1AA;	-ia	1A	-ia	1c	-ia	1e	-ia
*	*ij	*	*	*	*	*	*
2.A\	AL-	0c	.	1e	.	1.a	.
4G\	.	.	.	.	.	.	.
=7-	=7-	=7-	=7-	=7-	=7-	=7-	=7-
2F\	.	.	.	4A/	.	.	.
.	.	.	.	4B/	.	.	.
4E\	.	.	.	4c/	.	4g\	.
!	!	!	!	!	!	!LO:TX:t=P:problem=kreska pseudotaktowa	!
4D\	-le-	.	.	4d\	.	4f\	.
!	!	!	!	!LO:TX:t=P:problem=kreska pseudotaktowa	!	!	!
1E	-lu-	1B	.	1e	.	2.g\	.
.	.	.	.	.	.	4f\	.
=8-	=8-	=8-	=8-	=8-	=8-	=8-	=8-
!LO:TX:t=P:problem=kreska pseudotaktowa	!	!	!	!	!	!	!
1AA	-ia	1A	.	2r	.	1e	.
.	.	.	.	2c/	.	.	.
*	*	*lig	*	*lig	*	*	*
1r	.	1d	.	1B	.	2d\	.
!	!	!	!	!	!	!LO:TX:t=P:problem=kreska pseudotaktowa	!
.	.	.	.	.	.	2g\	.
=9-	=9-	=9-	=9-	=9-	=9-	=9-	=9-
1F	AL-	1c	.	1A	.	1a	.
*	*	*Xlig	*	*Xlig	*	*	*
*	*	*lig	*	*lig	*	*	*
!LO:TX:t=P:problem=kreska pseudotaktowa	!	!	!	!	!	!	!
1G	.	1B	.	1d	.	1g	.
=10-	=10-	=10-	=10-	=10-	=10-	=10-	=10-
*	*	*	*	*custos:B	*	*	*
2A\	.	1A	.	1c	.	2r	.
*custos:G	*	*	*	*	*	*	*
!LO:TX:t=P:problem=kreska pseudotaktowa	!	!	!	!	!	!	!
2F\	.	.	.	.	.	2f\	.
*	*	*Xlig	*	*Xlig	*	*	*
!LO:LB:g=original	!	!	!	!LO:LB:g=original	!	!LO:TX:t=P:problem=kreska pseudotaktowa	!
2G\	.	1G	.	2B/	.	1e	.
!LO:TX:t=P:problem=kreska pseudotaktowa	!	!	!	!	!	!	!
2C/	.	.	.	2c/	.	.	.
=11-	=11-	=11-	=11-	=11-	=11-	=11-	=11-
*	*	*lig	*	*	*	*	*
2D/	.	1B	.	1B	.	2d\	.
*	*	*	*	*	*	*custos:f	*
!	!	!	!	!	!	!LO:TX:t=P:problem=kreska pseudotaktowa	!
!LO:TX:t=P:problem=kreska pseudotaktowa	!	!	!	!	!	!	!
2E\	.	.	.	.	.	2g\	.
!	!	!	!	!	!	!LO:PB:g=original	!
4AA/	.	1c	.	2A/	.	2f\	.
4BB/	.	.	.	.	.	.	.
!	!	!	!	!LO:TX:t=P:problem=kreska pseudotaktowa	!	!	!
4C/	.	.	.	2e\	.	1a\	.
4D/	.	.	.	.	.	.	.
*	*	*Xlig	*	*	*	*	*
=12-	=12-	=12-	=12-	=12-	=12-	=12-	=12-
*lig	*	*lig	*	*	*	*	*
1E	.	1B	.	2.e\	.	.	.
!	!	!	!	!	!	!LO:TX:t=P:problem=kreska pseudotaktowa	!
.	.	.	.	.	.	2g\	.
.	.	.	.	4d\	.	.	.
1F	.	1A	.	4c/	.	2a\	.
.	.	.	.	4B/	.	.	.
.	.	.	.	1A/	.	2f\	.
*Xlig	*	*Xlig	*	*	*	*	*
=13-	=13-	=13-	=13-	=13-	=13-	=13-	=13-
!LO:TX:t=P:problem=kreska pseudotaktowa	!	!	!	!	!	!	!
1E	.	1B	.	.	.	2.g\	.
!	!	!	!	!LO:TX:t=P:problem=kreska pseudotaktowa	!	!	!
.	.	.	.	2G/	.	.	.
!	!	!	!	!	!	!LO:TX:t=P:problem=kreska pseudotaktowa	!
.	.	.	.	.	.	4f\	.
1AA	.	1c	.	2.A/	.	1e	.
.	.	.	.	4B/	.	.	.
=14-	=14-	=14-	=14-	=14-	=14-	=14-	=14-
2AA/	-le-	[0Al;;	.	2c/	.	2e\	.
1D	.	.	.	1f	.	1d	.
2C#X/	.	.	.	2e\	.	2e\	.
=15-	=15-	=15-	=15-	=15-	=15-	=15-	=15-
1D	-lu-	0A]	.	1d	.	1f	.
1AAl;;	-ia	.	.	1c#Xl;;	.	1el;	.
*	*Xij	*	*	*	*	*	*
!	!	!LO:LB:g=original	!	!	!	!	!
=16||	=16||	=16||	=16||	=16||	=16||	=16||	=16||
*M2/1	*	*M2/1	*	*M2/1	*	*M2/1	*
*met(C|)	*	*met(C|)	*	*met(C|)	*	*met(C|)	*
*lig	*	*lig	*	*	*	*	*
1E	A-	1G	A-	2.B/	A-	1g	A-
.	.	.	.	4c/	.	.	.
!	!	!	!	!	!	!LO:TX:t=P:problem=kreska pseudotaktowa	!
1D	.	1A	.	2d\	.	1f	-ue
.	.	.	.	4A/	.	.	.
!	!	!	!	!LO:TX:t=P:problem=kreska pseudotaktowa	!	!	!
.	.	.	.	4B/	.	.	.
*Xlig	*	*Xlig	*	*	*	*	*
=17-	=17-	=17-	=17-	=17-	=17-	=17-	=17-
!	!	!LO:TX:t=P:problem=kreska pseudotaktowa	!	!	!	!	!
2C/	-ue	1A	-ue	2.c/	.	2e\	ma-
2.AA/	Ma-	.	.	.	.	1a	.
.	.	.	.	4d\	.	.	.
*	*	*lig	*	*	*	*	*
.	.	1c	Ma-	1e	-ue	.	.
4BB/	.	.	.	.	.	.	.
!LO:TX:t=P:problem=kreska pseudotaktowa	!	!	!	!	!	!LO:TX:t=P:problem=kreska pseudotaktowa	!
2C/	.	.	.	.	.	2g\	.
=18-	=18-	=18-	=18-	=18-	=18-	=18-	=18-
2D\	.	1A	.	2d\	Ma-	2f\	.
2C/	.	.	.	1A	-ri-	2e\	-ri-
*	*	*Xlig	*	*	*	*	*
!	!	!	!	!	!	!LO:TX:t=P:problem=kreska pseudotaktowa	!
1BB	.	1B	.	.	.	1d	-a
!	!	!	!	!LO:TX:t=P:problem=kreska pseudotaktowa	!	!	!
.	.	.	.	2G/	.	.	.
=19-	=19-	=19-	=19-	=19-	=19-	=19-	=19-
*	*	*lig	*	*	*	*	*
*	*	*	*	*custos:d	*	*	*
2AA/	.	1c	.	1A	-a	2r	.
*	*	*	*	*	*	*	*ij
*custos:G	*	*	*	*	*	*	*
!LO:TX:t=P:problem=kreska pseudotaktowa	!	!	!	!	!	!	!
2A\	.	.	.	.	.	2e\	a-
!LO:LB:g=original	!	!	!	!LO:LB:g=original	!	!	!
1G	.	1B	.	2r	.	2d\	-ue
!	!	!	!	!LO:TX:t=P:problem=kreska pseudotaktowa	!	!	!
.	.	.	.	2d\	.	1g\	ma-
*	*	*Xlig	*	*	*	*	*
=20-	=20-	=20-	=20-	=20-	=20-	=20-	=20-
1D	.	1A	.	2.d\	.	.	.
!	!	!	!	!	!	!LO:TX:t=P:problem=kreska pseudotaktowa	!
.	.	.	.	.	.	2f\	.
.	.	.	.	4c/	.	.	.
*lig	*	*lig	*	*	*	*	*
1E	ri-	1G	-ri-	2B/	.	2g\	.
!	!	!	!	!LO:TX:t=P:problem=kreska pseudotaktowa	!	!	!
.	.	.	.	2c/	.	4f\	.
*	*	*	*	*	*	*custos:f	*
!	!	!	!	!	!	!LO:TX:t=P:problem=kreska pseudotaktowa	!
.	.	.	.	.	.	4e\	.
!	!	!	!	!	!	!LO:LB:g=original	!
=21-	=21-	=21-	=21-	=21-	=21-	=21-	=21-
1D	.	1A	.	1d	.	1f	-ri-
*Xlig	*	*Xlig	*	*	*	*	*
!LO:TX:t=P:problem=kreska pseudotaktowa	!	!LO:TX:t=P:problem=kreska pseudotaktowa	!	!	!	!LO:TX:t=P:problem=kreska pseudotaktowa	!
1D,<	-a	1A,<	-a	2d\	gra-	1f	-a
*	*	*	*	*	*	*	*Xij
.	.	.	.	2.f\	.	.	.
=22-	=22-	=22-	=22-	=22-	=22-	=22-	=22-
*	*	*lig	*	*	*	*	*
!	!	!	!	!	!	!LO:TX:t=P:problem=kreska pseudotaktowa	!
1F	gra-	1A	gra-	.	.	1r	.
.	.	.	.	4e\	.	.	.
.	.	.	.	4d\	.	.	.
!	!	!	!	!LO:TX:t=P:problem=kreska pseudotaktowa	!	!	!
.	.	.	.	4c/	.	.	.
*	*	*	*	*	*	*lig	*
2.G\	.	1B	.	4d\	.	1d	gra-
.	.	.	.	4c/	.	.	.
.	.	.	.	4B/	.	.	.
!LO:TX:t=P:problem=kreska pseudotaktowa	!	!	!	!	!	!	!
4F\	.	.	.	4A/	.	.	.
*	*	*Xlig	*	*	*	*	*
=23-	=23-	=23-	=23-	=23-	=23-	=23-	=23-
4E\	.	1G	-ti-	1B	.	1e	.
4D\	.	.	.	.	.	.	.
2E\	-ti-	.	.	.	.	.	.
*	*	*	*	*	*	*Xlig	*
!LO:TX:t=P:problem=kreska pseudotaktowa	!	!LO:TX:t=P:problem=kreska pseudotaktowa	!	!	!	!	!
1AA	-a	1A,<	-a	2A/	.	1c	-ti-
!	!	!	!	!LO:TX:t=P:problem=kreska pseudotaktowa	!	!	!
.	.	.	.	2e\	-ti-	.	.
=24-	=24-	=24-	=24-	=24-	=24-	=24-	=24-
*	*	*lig	*	*	*	*	*
2r	.	1d	ple-	1f	-a	2d\	-a
!	!	!	!	!	!	!LO:TX:t=P::problem=kreska pseudotaktowa&colon;między nutą a kropką	!
2D/	ple-	.	.	.	.	2.a\	ple-
*	*	*	*	*lig	*	*	*
1E	.	1c	.	1e	ple-	.	.
.	.	.	.	.	.	4g\	.
.	.	.	.	.	.	1g\	.
*	*	*Xlig	*	*	*	*	*
=25-	=25-	=25-	=25-	=25-	=25-	=25-	=25-
!LO:TX:t=P:problem=kreska pseudotaktowa	!	!	!	!	!	!	!
1D	.	1d	.	1A	.	.	.
!	!	!	!	!	!	!LO:TX:t=P:problem=kreska pseudotaktowa	!
.	.	.	.	.	.	2f\	.
*	*	*lig	*	*Xlig	*	*	*
1GG	.	1B	-na	1d	.	2.g\	.
.	.	.	.	.	.	4f\	.
=26-	=26-	=26-	=26-	=26-	=26-	=26-	=26-
!LO:TX:t=P:problem=kreska pseudotaktowa	!	!LO:TX:t=P:problem=kreska pseudotaktowa	!	!LO:TX:t=P:problem=kreska pseudotaktowa	!	!	!
1AA	-na	1A	.	1c	-na	1e	.
*	*	*Xlig	*	*	*	*	*
*	*	*lig	*	*	*	*	*
2r	.	1d	Do-	2B/	Do-	2d\	-na
!	!	!	!	!	!	!LO:TX:t=P:problem=kreska pseudotaktowa	!
2D\	Do-	.	.	2A/	.	2f\	Do-
=27-	=27-	=27-	=27-	=27-	=27-	=27-	=27-
2E\	.	1c	.	2G/	.	2g\	.
!LO:TX:t=P:problem=kreska pseudotaktowa	!	!	!	!	!	!	!
2F\	.	.	.	4F/	.	1a	.
!	!	!	!	!LO:TX:t=P:problem=kreska pseudotaktowa	!	!	!
.	.	.	.	4G/	.	.	.
*	*	*Xlig	*	*	*	*	*
*	*	*custos:c	*	*	*	*	*
1D	.	1d	.	1A	.	.	.
.	.	.	.	.	.	4g\	.
!	!	!	!	!	!	!LO:TX:t=P:problem=kreska pseudotaktowa	!
.	.	.	.	.	.	4f\	.
!	!	!LO:LB:g=original	!	!	!	!	!
=28-	=28-	=28-	=28-	=28-	=28-	=28-	=28-
1E	.	1B	-mi-	2.e\	.	1g	-mi-
.	.	.	.	4d\	-mi-	.	.
!	!	!LO:TX:t=P:problem=kreska pseudotaktowa	!	!LO:TX:t=P:problem=kreska pseudotaktowa	!	!	!
1F	-mi-	1A	-nus	1c	-nus	1a	-nus
=29-	=29-	=29-	=29-	=29-	=29-	=29-	=29-
*	*	*lig	*	*	*	*lig	*
1F,<	-nus	1c	te-	2.f\	te-	1a	te-
.	.	.	.	4e\	.	.	.
*	*	*	*	*custos:e	*	*	*
2F\	te-	1B	.	2d\	.	1g	.
!	!	!	!	!LO:LB:g=original	!	!	!
2E\	.	.	.	4e\	.	.	.
!	!	!	!	!LO:TX:t=P:problem=kreska pseudotaktowa	!	!	!
.	.	.	.	4d\	.	.	.
*	*	*Xlig	*	*	*	*Xlig	*
=30-	=30-	=30-	=30-	=30-	=30-	=30-	=30-
*custos:E	*	*	*	*	*	*	*
!LO:TX:t=P:problem=kreska pseudotaktowa	!	!	!	!	!	!LO:TX:t=P:problem=kreska pseudotaktowa	!
1F	.	1A	.	4c/	.	1f	.
.	.	.	.	4B/	.	.	.
!	!	!	!	!LO:TX:t=P:problem=kreska pseudotaktowa	!	!	!
.	.	.	.	2A/	.	.	.
!LO:LB:g=original	!	!	!	!	!	!	!
2.E\	.	1B	.	4G/	.	2.g\	.
.	.	.	.	4F/	.	.	.
.	.	.	.	2.G/	.	.	.
!	!	!	!	!	!	!LO:TX:t=P:problem=kreska pseudotaktowa	!
4D\	.	.	.	.	.	4f\	.
=31-	=31-	=31-	=31-	=31-	=31-	=31-	=31-
*	*	*lig	*	*	*	*	*
4C/	.	1c	.	.	.	4e\	.
4BB/	.	.	.	4F/	.	4d\	.
!	!	!	!	!LO:TX:t=P:problem=kreska pseudotaktowa	!	!	!
2C/	.	.	.	2E/	.	1e	.
!LO:TX:t=P:problem=kreska pseudotaktowa	!	!	!	!	!	!	!
1D	.	1A	.	1F	.	.	.
!	!	!	!	!	!	!LO:TX:t=P:problem=kreska pseudotaktowa	!
.	.	.	.	.	.	2d\	.
*	*	*Xlig	*	*	*	*	*
=32-	=32-	=32-	=32-	=32-	=32-	=32-	=32-
*	*	*	*	*	*	*custos:g	*
!	!	!LO:TX:t=P:problem=kreska pseudotaktowa	!	!LO:TX:t=P:problem=kreska pseudotaktowa	!	!	!
1AA,<	-cum	1A,<	-cum	1E	-cum	1e	-cum.
*	*	*lig	*	*	*	*	*
!LO:TX:t=P:problem=kreska pseudotaktowa	!	!	!	!	!	!LO:LB:g=original	!
0E,<	be-	1B	be-	0e	be-	0g	be-
=33-	=33-	=33-	=33-	=33-	=33-	=33-	=33-
.	.	1c	.	.	.	.	.
*	*	*Xlig	*	*	*	*	*
!	!	!	!	!	!	!LO:TX:t=P:problem=kreska pseudotaktowa	!
1D	.	1d	.	4f\	-ne-	1f	-ne-
.	.	.	.	4e\	.	.	.
.	.	.	.	4d\	.	.	.
!	!	!	!	!LO:TX:t=P:problem=kreska pseudotaktowa	!	!	!
.	.	.	.	4c/	.	.	.
=34-	=34-	=34-	=34-	=34-	=34-	=34-	=34-
2D/	-ne-	1A	-ne-	2d\	.	2f\	-di-
4C/	.	.	.	2e\	.	4e\	.
!LO:TX:t=P:problem=kreska pseudotaktowa	!	!	!	!	!	!LO:TX:t=P:problem=kreska pseudotaktowa	!
4BB/	.	.	.	.	.	4d\	.
*	*	*lig	*	*	*	*	*
!	!	!	!	!LO:TX:t=P:problem=kreska pseudotaktowa	!	!	!
2C/	.	1A	-dic-	1c	.	2e\	.
!	!	!	!	!	!	!LO:TX:t=P:problem=kreska pseudotaktowa	!
2AA/	.	.	.	.	.	2c/	.
=35-	=35-	=35-	=35-	=35-	=35-	=35-	=35-
1BB	-di-	1G	.	2B/	.	1d	.
.	.	.	.	2G/	-di-	.	.
*	*	*Xlig	*	*	*	*	*
!	!	!LO:TX:t=P:problem=kreska pseudotaktowa	!	!	!	!	!
2AA,</	-cta	1E,<	-ta	2A/	.	2c/	.
2.C/	tu	.	.	2.e\	.	2.g\	.
=36-	=36-	=36-	=36-	=36-	=36-	=36-	=36-
*	*	*lig	*	*	*	*	*
.	.	1G	.	.	.	.	.
4D\	.	.	.	4d\	.	4f\	.
!LO:TX:t=P:problem=kreska pseudotaktowa	!	!	!	!	!	!LO:TX:t=P:problem=kreska pseudotaktowa	!
2E\	.	.	.	2c/	-cta	2e\	.
!	!	!	!	!LO:TX:t=P:problem=kreska pseudotaktowa	!	!	!
0D	.	1A	.	1d	tu	2.f\	.
.	.	.	.	.	.	4e\	.
*	*	*Xlig	*	*	*	*	*
=37-	=37-	=37-	=37-	=37-	=37-	=37-	=37-
*	*	*lig	*	*	*	*	*
!	!	!	!	!LO:TX:t=P:problem=kreska pseudotaktowa	!	!	!
.	.	1B	.	1r	.	1d	.
!	!	!LO:TX:t=P:problem=kreska pseudotaktowa	!	!	!	!	!
2.C/	.	1c	.	0G	in	2.e\	.
4D\	.	.	.	.	.	4f\	-cta
*	*	*Xlig	*	*	*	*	*
=38-	=38-	=38-	=38-	=38-	=38-	=38-	=38-
*	*	*lig	*	*	*	*lig	*
!LO:TX:t=P:problem=kreska pseudotaktowa	!	!	!	!	!	!	!
1E	.	1B	tu	.	.	1g	tu
!	!	!LO:TX:t=P:problem=kreska pseudotaktowa	!	!	!	!LO:TX:t=P:problem=kreska pseudotaktowa	!
1AA,<	.	1A	.	1c	mu-	1e	.
*	*	*Xlig	*	*	*	*Xlig	*
=39-	=39-	=39-	=39-	=39-	=39-	=39-	=39-
!	!	!	!	!LO:TX:t=P:problem=kreska pseudotaktowa	!	!	!
1BB	in	1G	in	1d	-li-	2r	.
.	.	.	.	.	.	1g	in
*	*	*	*	*custos:d	*	*	*
!	!	!	!	!LO:TX:t=P:problem=kreska pseudotaktowa	!	!	!
1AA	mu-	1A	mu-	1c	-e-	.	.
!	!	!	!	!	!	!LO:TX:t=P:problem=kreska pseudotaktowa	!
.	.	.	.	.	.	2f\	mu-
!	!	!	!	!LO:LB:g=original	!	!	!
=40-	=40-	=40-	=40-	=40-	=40-	=40-	=40-
*	*	*lig	*	*lig	*	*	*
2BB/	-li-	1G	-li-	1d	.	1g	-li-
*custos:D	*	*	*	*	*	*	*
!LO:TX:t=P:problem=kreska pseudotaktowa	!	!	!	!	!	!	!
2GG/	.	.	.	.	.	.	.
*	*	*custos:c	*	*	*	*	*
!LO:LB:g=original	!	!	!	!	!	!	!
2.D/	-e-	1A	.	1f,<	.	2f\	-e-
!	!	!	!	!	!	!LO:TX:t=P:problem=kreska pseudotaktowa	!
.	.	.	.	.	.	2d\	-ri-
4D/	-ri-	.	.	.	.	.	.
*	*	*Xlig	*	*Xlig	*	*	*
!	!	!LO:LB:g=original	!	!	!	!	!
=41-	=41-	=41-	=41-	=41-	=41-	=41-	=41-
*	*	*lig	*	*	*	*	*
!LO:TX:t=P:problem=kreska pseudotaktowa	!	!	!	!	!	!	!
1C	-bus	1c	-e-	1e	.	2e,<\	-bus
*	*ij	*	*	*	*	*	*ij
.	.	.	.	.	.	1g	in
2r	.	1B	.	2d\	.	.	.
*	*	*	*	*	*	*custos:a	*
!	!	!	!	!	!	!LO:TX:t=P:problem=kreska pseudotaktowa	!
!LO:TX:t=P:problem=kreska pseudotaktowa	!	!	!	!	!	!	!
2E\	in	.	.	4e\	.	2g\	mu-
!	!	!	!	!LO:TX:t=P:problem=kreska pseudotaktowa	!	!	!
.	.	.	.	4d\	.	.	.
*	*	*Xlig	*	*	*	*	*
!	!	!	!	!	!	!LO:LB:g=original	!
=42-	=42-	=42-	=42-	=42-	=42-	=42-	=42-
!	!	!LO:TX:t=P:problem=kreska pseudotaktowa	!	!	!	!	!
2.F\	mu-	1A	.	4c/	.	2.a\	.
.	.	.	.	4B/	.	.	.
.	.	.	.	4A/	.	.	.
!	!	!	!	!	!	!LO:TX:t=P:problem=kreska pseudotaktowa	!
4E\	-li-	.	.	4G/	.	4g\	.
*	*	*lig	*	*	*	*lig	*
!LO:TX:t=P:problem=kreska pseudotaktowa	!	!	!	!LO:TX:t=P:problem=kreska pseudotaktowa	!	!	!
1D	-e-	1d	.	0A,<	.	1f	.
=43-	=43-	=43-	=43-	=43-	=43-	=43-	=43-
1AA	.	1c	.	.	.	1e	.
*	*	*Xlig	*	*	*	*Xlig	*
*	*	*lig	*	*	*	*	*
2.BB/	.	1B	.	0.d,<	.	2d\	-li-
.	.	.	.	.	.	1g\	-e-
4C/	-ri-	.	.	.	.	.	.
=44-	=44-	=44-	=44-	=44-	=44-	=44-	=44-
!LO:TX:t=P:problem=kreska pseudotaktowa	!	!	!	!	!	!	!
1D	-bus	1A	.	.	.	.	.
!	!	!	!	!	!	!LO:TX:t=P:problem=kreska pseudotaktowa	!
.	.	.	.	.	.	2f\	-ri-
*	*	*Xlig	*	*	*	*	*
!	!	!LO:TX:t=P:problem=kreska pseudotaktowa	!	!	!	!	!
0GG	in	1G	.	.	.	0g	-bus
=45-	=45-	=45-	=45-	=45-	=45-	=45-	=45-
*	*	*lig	*	*	*	*	*
.	.	1B	.	1e	-ri-	.	.
!	!	!	!	!LO:TX:t=P:problem=kreska pseudotaktowa	!	!	!
1AA	mu-	1c	.	1A	-bus	1e	in
*	*	*Xlig	*	*	*	*	*
=46-	=46-	=46-	=46-	=46-	=46-	=46-	=46-
*	*	*lig	*	*	*	*	*
2.BB/	-li-	1B	.	2r	.	2.d\	mu-
.	.	.	.	2d\	in	.	.
!LO:TX:t=P:problem=kreska pseudotaktowa	!	!	!	!	!	!LO:TX:t=P:problem=kreska pseudotaktowa	!
4C/	.	.	.	.	.	4e\	.
2D/	.	1A	.	2d\	mu-	2f\	.
2C/	.	.	.	1e,<\	-li-	4e\	.
.	.	.	.	.	.	4f\	.
*	*	*Xlig	*	*	*	*	*
=47-	=47-	=47-	=47-	=47-	=47-	=47-	=47-
*	*	*lig	*	*	*	*	*
!LO:TX:t=P:problem=kreska pseudotaktowa	!	!	!	!	!	!LO:TX:t=P:problem=kreska pseudotaktowa	!
1BB	-e-	1G	-ri-	.	.	1g	-li-
!	!	!	!	!LO:TX:t=P:problem=kreska pseudotaktowa	!	!	!
.	.	.	.	2d\	-e-	.	.
1AA	-ri-	1A	.	1e,	-ri-	2.c/	-e-
.	.	.	.	.	.	4d\	-ri-
*	*	*Xlig	*	*	*	*	*
=48-	=48-	=48-	=48-	=48-	=48-	=48-	=48-
0AAl;;	-bus	0Al;;	-bus	0c#Xl;;/	-bus	0el;;	-bus
*	*Xij	*	*	*	*	*	*Xij
==	==	==	==	==	==	==	==
*-	*-	*-	*-	*-	*-	*-	*-
!!!system-decoration: [(*)]
!!!RDF**kern: < = below
!!!RDF**kern: l = terminal long
!!!AIN: 1 alto 1 bass 1 soprn 1 tenor
!!!ENC: Andrzej Kubiczek
!!!END: 2022-01-07
!!!ENC: Andrzej Kubiczek
!!!END: 2022-01-07
